X:1
T:F# minor Daniel Belknap, 1794
T:Joseph Hart, 1769 887. 887.
T:Lena
T:Transcribed from The Worcester Collection, 1794.
%%score [ 1 2 3 4 ]
L:1/8
M:4/4
K:A
V:1 treble nm="Treble" snm="Tr."
V:2 treble nm="Counter" snm="C."
V:3 treble-8 nm="Tenor" snm="T."
V:4 bass nm="Bass" snm="B."
V:1
 c2 c2 c3 c | c2 B2 e2 e z | f2 ^ed c2 A z | Bcdc c2 c z | c2 B2 A2 B2 | A2 B2 (c>B A>B | %6
 c3) z c2 c2 | c2 c z B2 c>d | e2 e z e3 B | c3 c cA cd | e2 e z (c f2) A | (B e2) d c2 c2 | c8 |] %13
V:2
 F2 ^E2 F3 G | FA G2 G2 G z | A2 G2 A2 A z | F2 F2 ^E2 E z | A2 E2 C2 G2 | F2 B2 (A4 | %6
w: See the Lord of|glo- * ry dy- ing!|See him gas- ping,|Hear him cry- ing!|See his bur- dened|bo- som heave!~|
 G3) z F2 G2 | A2 A z G>F E>F | G2 G z A3 E | F3 G F2 F2 | G2 G z A3 A | G3 G F2 ^E2 | F8 |] %13
w: _ Look, ye|sin- ners, ye * that *|hung him, Look how|deep your sins have|stung him, Dy- ing|sin- ners, look and|live.|
V:3
 F2 G2 A3 G | A2 B2 c2 c z | c2 ^e2 f2 c z | dcBA G2 G z | A2 G2 F2 E2 | F2 G2 A>B c>d | %6
 e3 z f2 ^e2 | f2 f z d2 c2 | B2 B z c3 B | A3 G AF AB | c2 c z (f c2) c | (d B2) G AF G2 | F8 |] %13
V:4
 F,2 C,2 F,3 ^E, | F,2 G,2 C,2 C, z | F,2 C,2 F,2 F, z | B,A,G,F, C,2 C, z | A,2 B,2 C2 G,2 | %5
 A,2 G,2 (F,4 | C,3) z F,2 C,2 | F,2 F, z G,2 A,2 | %8
"^_____________________________________________________\nEdited by B. C. Johnston, 2015\nMeasure 3, \nTreble\n: quarter-note E# tied to grace note D, changed to two beamed eighth-notes on those tones.\n" E,2 E, z A,3 G, | %9
 F,3 C, F,2 F,2 | C,2 C, z F,3 F, | E,3 E, F,2 C,2 | F,8 |] %13

